svg/azure-devops.svg

<?xml version="1.0" encoding="UTF-8"?>
<svg xmlns="http://www.w3.org/2000/svg" xmlns:xlink="http://www.w3.org/1999/xlink" width="31.885" height="32" viewBox="0 0 31.885 32">
<defs>
<linearGradient id="azure-devops-lp-0" gradientUnits="userSpaceOnUse" x1="9" y1="16.969999" x2="9" y2="1.03" gradientTransform="matrix(1.92308, 0, 0, 1.92308, -1.308, -1.308)">
<stop offset="0" stop-color="rgb(0%, 47.058824%, 83.137255%)" stop-opacity="1"/>
<stop offset="0.16" stop-color="rgb(7.45098%, 50.196078%, 85.490196%)" stop-opacity="1"/>
<stop offset="0.53" stop-color="rgb(23.529412%, 56.862745%, 89.803922%)" stop-opacity="1"/>
<stop offset="0.82" stop-color="rgb(33.333333%, 61.176471%, 92.54902%)" stop-opacity="1"/>
<stop offset="1" stop-color="rgb(36.862745%, 62.745098%, 93.72549%)" stop-opacity="1"/>
</linearGradient>
</defs>
<path fill-rule="nonzero" fill="url(#azure-devops-lp-0)" d="M 31.382812 6.382812 L 31.382812 25.117188 L 23.691406 31.421875 L 11.769531 27.078125 L 11.769531 31.382812 L 5.019531 22.558594 L 24.691406 24.097656 L 24.691406 7.230469 Z M 24.828125 7.328125 L 13.789062 0.617188 L 13.789062 5.019531 L 3.652344 8 L 0.617188 11.902344 L 0.617188 20.769531 L 4.960938 22.691406 L 4.960938 11.328125 Z M 24.828125 7.328125 "/>
</svg>

<svg role="img" viewBox="0 0 31.885 32" height="32" width="31.885" xmlns="http://www.w3.org/2000/svg"><defs><linearGradient gradientTransform="translate(-1.308 -1.308)scale(1.92308)" gradientUnits="userSpaceOnUse" id="1446__1445__azure-devops-lp-0" x1="9" x2="9" y1="16.97" y2="1.03"><stop offset="0" stop-color="rgb(0%, 47.058824%, 83.137255%)"/><stop offset=".16" stop-color="rgb(7.45098%, 50.196078%, 85.490196%)"/><stop offset=".53" stop-color="rgb(23.529412%, 56.862745%, 89.803922%)"/><stop offset=".82" stop-color="rgb(33.333333%, 61.176471%, 92.54902%)"/><stop offset="1" stop-color="rgb(36.862745%, 62.745098%, 93.72549%)"/></linearGradient></defs><path d="M31.383 6.383v18.734l-7.692 6.305-11.921-4.344v4.305l-6.75-8.824 19.671 1.539V7.23Zm-6.555.945L13.79.618V5.02L3.652 8 .617 11.902v8.868l4.344 1.921V11.328Zm0 0" fill="url(#1446__1445__azure-devops-lp-0)"/></svg>
